packages/ffe-icons/icons/filled/md/live_tv.svg

<svg xmlns="http://www.w3.org/2000/svg" height="24" viewBox="0 -960 960 960" width="24"><path d="M441.615-391.539 597.999-491.77q15.308-10.076 15.308-28.23t-15.308-28.23L441.615-648.461q-16.538-11.076-34.076-1.807t-17.538 29.422v201.692q0 20.153 17.538 29.422 17.538 9.269 34.076-1.807ZM172.309-220.001q-30.308 0-51.308-21t-21-51.308v-455.382q0-30.308 21-51.308t51.308-21h615.382q30.308 0 51.308 21t21 51.308v455.382q0 30.308-21 51.308t-51.308 21H619.999v43.846q0 15.461-10.347 25.807-10.346 10.347-25.807 10.347h-207.69q-15.461 0-25.807-10.347-10.347-10.346-10.347-25.807v-43.846H172.309Z"/></svg>

<svg xmlns="http://www.w3.org/2000/svg" height="24" viewBox="0 -960 960 960" width="24"><path d="M441.62-391.54 598-491.77q15.31-10.08 15.31-28.23T598-548.23L441.62-648.46q-16.54-11.08-34.08-1.81T390-620.85v201.7q0 20.15 17.54 29.42 17.54 9.27 34.08-1.81ZM172.31-220Q142-220 121-241q-21-21-21-51.31v-455.38Q100-778 121-799q21-21 51.31-21h615.38Q818-820 839-799q21 21 21 51.31v455.38Q860-262 839-241q-21 21-51.31 21H620v43.84q0 15.47-10.35 25.81Q599.31-140 583.84-140H376.16q-15.47 0-25.81-10.35Q340-160.69 340-176.16V-220H172.31Z"/></svg>
